X:1
T:Ein feste Burg ist unser Gott
T:Ein feste Burg ist unser Gott
T:Hans Kugelmann (?-1542)
C:Hans Kugelmann (?-1542)
%%score [ 1 2 3 ]
L:1/8
Q:1/4=80
M:2/2
K:C
V:1 treble nm="Soprano"
V:2 treble nm="Alto"
V:3 bass nm="Bass"
V:1
 z2 F2 F4 | F4 C3 D | E4 F2 E2 | D4 C4 | z2 G2 G2 F2 | G4 z4 | z4 z2 c2 | B4 A4 | A2 G2 F4 |1 %9
w: Ein fes-|te Burg _|ist un- *|ser Gott,|ist un- ser|Gott,|ein|gu- te|Wehr _ und|
w: Er hilft|uns frei _|aus al- *|ler Not,|aus al- ler|Not,|die|uns jetzt|hat _ be \-|
 E4 C4 :|2 E4 C4 || z4 z2 F2- | F2 G2 A2 c2- | c2 B2 c4 | B4 z2 c2 | B4 A3 G | F2 E2 D4 | %17
w: Waf- fen.|\- trof- fen.|Der|_ alt _ bõ-|* * se|Feind, mit|Ernst er's _|_ jetzt meint;|
w: ||||||||
 CDEF G2 G2 | A4 B4 | c4 c4 | B2 c4 B2 | G4 z4 | z4 z2 c2 | B4 A4 | A2 G2 F4 | E8 |] %26
w: groß _ _ _ Macht und|viel List|sein grau-|sam Rüs- tung|ist,|auf|Erd ist|nicht seins glei-|chen.|
w: |||||||||
V:2
 z4 z2 c2 | c4 c4 | G4 A2 c2- | c2 B2 A4 | G4 z2 c2 | B4 A4 | G4 F4 | E4 F3 E | DC C4 B,2 |1 C8 :|2 %10
w: Ein|fes- te|Burg ist un-|* * ser|Gott, ein|gu- te|Wehr und|Waf- * *||fen.|
w: Er|hilft uns|frei aus al-|* * ler|Not, die|uns jetzt|hat be-|trof \-      \- * *|||
 !breath!C2 C2 E3 F || G3 A B2 c2- | c2 B2 A4 | G8 | z4 C4 | G4 A3 B | c2 A2 B4 | A4 z2 G2- | %18
w: \-fen. Der alt _|_ _ _ bö-|* * se|Feind,|mit|Ernst er's _|_ _ jetzt|meint; groß|
w: ||||||||
 G2 F2 G4 | E4 F4 | G2 E3 CDD | E2 c2 B2 A2 | G4 F4 | E4 F3 E | DC C4 B,2 | C8 |] %26
w: _ Macht und|viel List|sein grau- sam Rüs- tung|ist, auf Erd ist|nicht seins|glei- * *||chen.|
w: ||||||||
V:3
 z8 | z4 z2 C2 | C4 C4 | G,4 A,2 C2- | C2 B,2 A,4 | G,4 z2 C2 | B,4 A,4 | G,4 A,2 F,2- | %8
w: |Ein|fes- te|Burg ist un-|* * ser|Gott, ein|gu- te|Wehr und Waf-|
w: |Er|hilft uns|frei aus al-|* * ler|Not, die|uns jetzt|hat be- trof \-    \-     \-|
 F,2 E,2 D,4 |1 C,8 :|2 C,4 z2 C,2 || E,3 F, G,2 A,2- | A,2 G,4 F,2 | G,4 C,4 | G,4 A,4 | B,4 C4 | %16
w: |fen.|\-fen. Der|alt _ _ bö-|* * se|Feind, mit|Ernst er's|jetzt meint;|
w: ||||||||
 z4 B,4 | C4 B,4 | A,4 G,4 | A,4 A,4 | G,2 A,4 G,2 | E,4 z2 C2 | B,4 A,4 | G,4 A,2 F,2- | %24
w: groß|Macht und|viel List|sein grau-|sam Rüs- tung|ist, auf|Erd ist|nicht seins glei-|
w: ||||||||
 F,2 E,2 D,4 | C,8 |] %26
w: |chen.|
w: ||

